packages/astro-components-stencil/src/icons/cloud-off.svg

<svg width="24" height="24" viewBox="0 0 24 24" fill="none" xmlns="http://www.w3.org/2000/svg">
<path fill-rule="evenodd" clip-rule="evenodd" d="M24 15C24 12.36 21.95 10.22 19.35 10.04C18.67 6.59 15.64 4 12 4C10.67 4 9.42998 4.36 8.34998 4.97L9.83998 6.46C10.51 6.17 11.23 6 12 6C15.04 6 17.5 8.46 17.5 11.5V12H19C20.66 12 22 13.34 22 15C22 15.99 21.52 16.85 20.79 17.4L22.2 18.81C23.29 17.89 24 16.54 24 15ZM3.70998 4.56C3.31998 4.95 3.31998 5.58 3.70998 5.97L5.76998 8.03H5.34998C2.06998 8.38 -0.410016 11.37 0.0599837 14.82C0.459984 17.84 3.18998 20 6.21998 20H17.73L19.02 21.29C19.41 21.68 20.04 21.68 20.43 21.29C20.82 20.9 20.82 20.27 20.43 19.88L5.11998 4.56C4.72998 4.17 4.09998 4.17 3.70998 4.56ZM1.99998 14C1.99998 16.21 3.78998 18 5.99998 18H15.73L7.72998 10H5.99998C3.78998 10 1.99998 11.79 1.99998 14Z" fill="black"/>
</svg>

<svg xmlns="http://www.w3.org/2000/svg" viewBox="0 0 24 24"><g xmlns="http://www.w3.org/2000/svg" id="cloud-off" fill-rule="nonzero">
            <path d="M24 15c0-2.64-2.05-4.78-4.65-4.96A7.49 7.49 0 0012 4c-1.33 0-2.57.36-3.65.97l1.49 1.49C10.51 6.17 11.23 6 12 6c3.04 0 5.5 2.46 5.5 5.5v.5H19a2.996 2.996 0 011.79 5.4l1.41 1.41c1.09-.92 1.8-2.27 1.8-3.81zM3.71 4.56a.996.996 0 000 1.41l2.06 2.06h-.42a5.99 5.99 0 00-5.29 6.79C.46 17.84 3.19 20 6.22 20h11.51l1.29 1.29a.996.996 0 101.41-1.41L5.12 4.56a.996.996 0 00-1.41 0zM6 18c-2.21 0-4-1.79-4-4s1.79-4 4-4h1.73l8 8H6z"/>
        </g></svg>
